img/icon/logo_desktop.svg

<svg width="24" height="25" viewBox="0 0 24 25" fill="none" xmlns="http://www.w3.org/2000/svg">
<path fill-rule="evenodd" clip-rule="evenodd" d="M12.8789 7.73053C12.8789 8.85137 12.556 9.8972 11.9999 10.775C11.4453 9.8972 11.1223 8.85137 11.1223 7.73053V7.47637C11.1223 6.35692 11.4453 5.31248 11.9999 4.43331C12.5574 5.31248 12.8789 6.35692 12.8789 7.47637V7.73053ZM12.8789 17.3263C12.8789 18.4458 12.556 19.4902 11.9999 20.3708C11.4453 19.4902 11.1223 18.4458 11.1223 17.3263V17.0722C11.1223 15.9541 11.4453 14.9069 11.9999 14.0263C12.5574 14.9069 12.8789 15.9541 12.8789 17.0722V17.3263ZM24 1.83333V0H16.6366C14.8813 0.00833333 13.268 0.645833 12 1.69722C10.732 0.645833 9.11584 0.00833333 7.36204 0H0V1.83333H7.35502C8.63 1.83333 9.80529 2.27917 10.7433 3.02639C9.81091 4.28611 9.25766 5.84861 9.25766 7.53333V7.875C9.25766 8.58889 9.35736 9.28472 9.54552 9.94583C8.84484 9.71944 8.09923 9.59722 7.32974 9.59722H0V11.4278H7.35502C8.50082 11.4278 9.56658 11.7875 10.4498 12.4C9.56658 13.0167 8.49942 13.375 7.35502 13.375H0V15.4028H7.32974C8.09923 15.4028 8.84484 15.2819 9.54271 15.0583C9.35736 15.7167 9.25766 16.4139 9.25766 17.1278V17.4681C9.25766 19.0986 9.7744 20.6097 10.6506 21.8472C9.72946 22.5514 8.58928 22.9694 7.35502 22.9694H0V25H7.32974C9.09759 25 10.7236 24.3639 12 23.3056C13.2764 24.3639 14.9038 25 16.6717 25H24V22.9694H16.645C15.4121 22.9694 14.2691 22.5514 13.3494 21.8472C14.2256 20.6097 14.7423 19.0986 14.7423 17.4681V17.1278C14.7423 16.4139 14.6426 15.7167 14.4531 15.0583C15.1552 15.2819 15.9008 15.4028 16.6717 15.4028H24V13.375H16.645C15.4992 13.375 14.4362 13.0167 13.5516 12.4C14.4362 11.7875 15.4992 11.4278 16.645 11.4278H24V9.59722H16.6717C15.9008 9.59722 15.1552 9.71944 14.4531 9.94583C14.6426 9.28472 14.7423 8.58889 14.7423 7.875V7.53333C14.7423 5.84861 14.1891 4.28611 13.2581 3.02639C14.1947 2.27917 15.37 1.83333 16.645 1.83333H24Z" fill="black"/>
</svg>

<svg width="24" height="25" fill="none" xmlns="http://www.w3.org/2000/svg"><path fill-rule="evenodd" clip-rule="evenodd" d="M12.88 7.73c0 1.12-.32 2.17-.88 3.04a5.69 5.69 0 01-.88-3.04v-.25c0-1.12.33-2.17.88-3.05.56.88.88 1.93.88 3.05v.25zm0 9.6c0 1.12-.32 2.16-.88 3.04a5.7 5.7 0 01-.88-3.04v-.26c0-1.12.33-2.16.88-3.04.56.88.88 1.92.88 3.04v.26zM24 1.83V0h-7.36A7.3 7.3 0 0012 1.7 7.3 7.3 0 007.36 0H0v1.83h7.36c1.27 0 2.45.45 3.38 1.2a7.56 7.56 0 00-1.48 4.5v.34c0 .72.1 1.41.29 2.08a7.2 7.2 0 00-2.22-.35H0v1.83h7.36c1.14 0 2.2.36 3.09.97-.88.62-1.95.97-3.1.97H0v2.03h7.33c.77 0 1.51-.12 2.21-.34a7.64 7.64 0 00-.28 2.07v.34c0 1.63.51 3.14 1.4 4.38a5.4 5.4 0 01-3.3 1.12H0V25h7.33A7.3 7.3 0 0012 23.3a7.3 7.3 0 004.67 1.7H24v-2.03h-7.36a5.4 5.4 0 01-3.3-1.12 7.55 7.55 0 001.4-4.38v-.34c0-.72-.1-1.41-.29-2.07.7.22 1.45.34 2.22.34H24v-2.03h-7.36c-1.14 0-2.2-.35-3.09-.97a5.41 5.41 0 013.1-.97H24V9.6h-7.33c-.77 0-1.51.12-2.22.35.2-.67.3-1.36.3-2.07v-.35c0-1.68-.56-3.24-1.5-4.5a5.41 5.41 0 013.4-1.2H24z" fill="#000"/></svg>
